public/logos/DS.svg

<?xml version="1.0" encoding="UTF-8"?>
<svg xmlns="http://www.w3.org/2000/svg" xmlns:xlink="http://www.w3.org/1999/xlink" width="176pt" height="40.26pt" viewBox="0 0 176 40.26" version="1.1">
<g id="surface1">
<path style=" stroke:none;fill-rule:evenodd;fill:rgb(92.793274%,35.328674%,11.949158%);fill-opacity:1;" d="M 158.949219 13.609375 L 158.949219 24.246094 C 158.949219 29.523438 161.738281 32.324219 166.929688 32.324219 C 172.160156 32.324219 176 29.351562 176 27.082031 C 176 25.511719 175.300781 24.597656 174.515625 24.597656 C 173.558594 24.597656 172.730469 25.46875 171.640625 25.46875 C 170.070312 25.46875 169.328125 24.597656 169.328125 22.851562 L 169.328125 14.828125 C 169.328125 13.738281 169.675781 13.78125 170.765625 13.738281 L 174.167969 13.609375 C 175.648438 13.5625 175.953125 13.476562 175.953125 11.863281 L 175.953125 9.945312 C 175.953125 8.765625 175.738281 8.722656 174.472656 8.722656 L 169.632812 8.722656 L 169.632812 6.71875 C 169.632812 4.101562 169.546875 3.316406 167.582031 3.316406 C 165.488281 3.316406 162.699219 5.277344 158.074219 8.503906 C 156.070312 9.902344 155.460938 10.03125 155.460938 11.6875 C 155.460938 13.652344 155.765625 13.519531 158.949219 13.609375 Z M 152.320312 21.109375 C 154.019531 21.109375 154.761719 20.234375 154.761719 17.75 C 154.761719 12.429688 150.355469 8.15625 143.816406 8.15625 C 139.761719 8.15625 135.96875 10.074219 133.613281 13.390625 C 132.128906 15.480469 131.347656 17.925781 131.347656 20.410156 C 131.347656 27.125 136.402344 32.410156 143.601562 32.410156 C 146.476562 32.410156 149.050781 31.617188 151.273438 30.132812 C 153.105469 28.914062 154.019531 27.519531 154.019531 26.429688 C 154.019531 25.074219 153.191406 24.160156 152.191406 24.160156 C 151.054688 24.160156 149.355469 26.078125 146.5625 26.078125 C 143.46875 26.078125 141.113281 23.679688 141.113281 21.71875 C 141.113281 21.195312 141.503906 21.109375 142.464844 21.109375 Z M 143.160156 16.746094 L 142.597656 16.746094 C 141.375 16.746094 140.980469 16.660156 140.980469 15.527344 C 140.980469 13.78125 142.335938 12.429688 143.816406 12.429688 C 145.257812 12.429688 146.347656 13.519531 146.347656 15.222656 C 146.347656 16.703125 145.996094 16.746094 143.601562 16.746094 Z M 115.125 21.675781 C 115.125 24.902344 113.945312 26.601562 112.113281 26.601562 C 111.417969 26.601562 110.9375 26.121094 110.9375 25.511719 C 110.9375 24.683594 111.242188 23.855469 111.242188 23.070312 C 111.242188 20.277344 109.148438 18.1875 106.140625 18.1875 C 103.21875 18.1875 101.082031 20.367188 101.082031 23.636719 C 101.082031 28.871094 105.746094 32.582031 113.246094 32.582031 C 119.613281 32.582031 123.671875 30.046875 125.238281 25.164062 C 126.199219 22.195312 125.808594 16.878906 126.070312 9.421875 C 126.15625 7.195312 126.15625 6.5 127.597656 5.671875 C 128.640625 5.0625 129.296875 4.753906 129.296875 3.183594 C 129.296875 0.65625 126.59375 0 120.484375 0 C 114.425781 0 111.589844 0.875 111.589844 3.621094 C 111.589844 5.105469 112.375 5.40625 113.46875 5.890625 C 114.949219 6.5 115.125 6.933594 115.125 9.421875 Z M 79.714844 24.726562 C 81.675781 29 82.984375 31.84375 82.984375 33.542969 C 82.984375 34.503906 82.546875 35.027344 81.894531 35.027344 C 80.933594 35.027344 81.195312 33.628906 80.457031 32.015625 C 79.800781 30.570312 78.535156 29.785156 76.96875 29.785156 C 74.832031 29.785156 72.910156 31.660156 72.910156 34.152344 C 72.910156 37.6875 75.703125 40.261719 80.152344 40.261719 C 84.421875 40.261719 87.476562 37.988281 90.003906 33.457031 C 92.53125 28.824219 93.667969 23.15625 95.71875 17.617188 C 96.632812 15.222656 96.941406 14.347656 98.726562 13.652344 C 100.035156 13.171875 100.863281 12.824219 100.863281 11.164062 C 100.863281 9.378906 99.292969 8.503906 95.894531 8.503906 C 92.226562 8.503906 90.355469 9.507812 90.355469 11.121094 C 90.355469 12.429688 92.097656 12.910156 92.097656 14 C 92.097656 14.171875 91.925781 15.222656 91.269531 16.617188 C 90.703125 17.882812 90.222656 18.535156 89.4375 18.535156 C 88.523438 18.535156 88.042969 17.882812 87.519531 16.570312 C 86.953125 15.179688 86.648438 14.261719 86.648438 13.78125 C 86.648438 12.996094 88.085938 12.910156 88.085938 11.296875 C 88.085938 8.984375 85.820312 8.460938 81.023438 8.460938 C 75.222656 8.460938 72.257812 9.769531 72.257812 12.082031 C 72.257812 13.652344 73.261719 13.910156 74.261719 14.4375 C 75.484375 15.046875 75.746094 16.09375 76.355469 17.445312 Z M 71.296875 24.640625 C 71.296875 21.195312 69.335938 19.144531 65.191406 17.050781 C 62.839844 15.875 61.355469 15.4375 61.355469 14.304688 C 61.355469 13.652344 61.964844 13.125 62.664062 13.125 C 64.058594 13.125 64.757812 14.347656 65.933594 15.394531 C 66.71875 16.09375 67.460938 16.441406 68.332031 16.441406 C 69.859375 16.441406 70.863281 15.4375 70.863281 13.910156 C 70.863281 11.121094 68.289062 8.15625 66.632812 8.15625 C 65.933594 8.15625 65.105469 8.855469 64.234375 8.855469 C 63.320312 8.855469 62.007812 8.285156 60.398438 8.285156 C 55.382812 8.285156 51.457031 11.863281 51.457031 15.964844 C 51.457031 19.101562 53.417969 21.804688 57.167969 23.679688 C 59.089844 24.640625 60.484375 24.859375 60.484375 26.296875 C 60.484375 26.777344 60.003906 27.253906 59.304688 27.253906 C 58.347656 27.253906 57.210938 26.515625 55.859375 25.074219 C 54.902344 24.074219 54.203125 23.15625 52.808594 23.15625 C 51.542969 23.15625 50.933594 24.074219 50.933594 25.816406 C 50.933594 28.957031 53.59375 32.015625 55.164062 32.015625 C 55.859375 32.015625 56.558594 31.488281 57.210938 31.488281 C 57.867188 31.488281 59.4375 32.277344 62.007812 32.277344 C 67.679688 32.277344 71.296875 29 71.296875 24.640625 Z M 37.457031 22.675781 C 37.457031 25.6875 37.371094 26.90625 35.84375 26.90625 C 34.710938 26.90625 34.101562 26.035156 34.101562 24.332031 C 34.101562 22.546875 34.929688 21.542969 36.324219 21.542969 C 37.328125 21.542969 37.457031 21.628906 37.457031 22.675781 Z M 37.5 18.273438 C 36.0625 18.011719 34.929688 17.882812 34.011719 17.882812 C 28.5625 17.882812 24.421875 21.109375 24.421875 25.25 C 24.421875 29.261719 27.386719 32.105469 32.136719 32.105469 C 34.320312 32.105469 35.582031 31.574219 37.109375 30.484375 C 37.546875 30.175781 37.851562 29.828125 38.242188 29.828125 C 38.722656 29.828125 39.160156 30.570312 39.988281 31.355469 C 40.726562 32.0625 41.601562 32.277344 42.824219 32.277344 C 47.050781 32.277344 50.148438 29.390625 50.148438 27.300781 C 50.148438 26.558594 49.710938 25.992188 48.839844 25.773438 C 47.574219 25.425781 47.53125 24.816406 47.53125 21.628906 L 47.53125 20.976562 C 47.53125 19.535156 47.664062 17.835938 47.664062 15.917969 C 47.664062 10.816406 44 8.113281 37.066406 8.113281 C 30.394531 8.113281 26.164062 10.816406 26.164062 13.78125 C 26.164062 15.4375 27.339844 16.617188 28.867188 16.617188 C 30.304688 16.617188 31.441406 15.875 32.707031 14.347656 C 33.707031 13.125 34.363281 12.035156 35.671875 12.035156 C 37.066406 12.035156 37.589844 13.300781 37.589844 16.09375 C 37.589844 16.746094 37.546875 17.445312 37.5 18.273438 Z M 20.972656 21.109375 C 22.675781 21.109375 23.417969 20.234375 23.417969 17.75 C 23.417969 12.429688 19.011719 8.15625 12.472656 8.15625 C 8.417969 8.15625 4.621094 10.074219 2.265625 13.390625 C 0.785156 15.480469 0 17.925781 0 20.410156 C 0 27.125 5.058594 32.410156 12.253906 32.410156 C 15.132812 32.410156 17.707031 31.617188 19.929688 30.132812 C 21.761719 28.914062 22.675781 27.519531 22.675781 26.429688 C 22.675781 25.074219 21.847656 24.160156 20.84375 24.160156 C 19.710938 24.160156 18.007812 26.078125 15.21875 26.078125 C 12.121094 26.078125 9.769531 23.679688 9.769531 21.71875 C 9.769531 21.195312 10.160156 21.109375 11.121094 21.109375 Z M 11.816406 16.746094 L 11.25 16.746094 C 10.027344 16.746094 9.636719 16.660156 9.636719 15.527344 C 9.636719 13.78125 10.988281 12.429688 12.472656 12.429688 C 13.910156 12.429688 15 13.519531 15 15.222656 C 15 16.703125 14.652344 16.746094 12.253906 16.746094 L 11.816406 16.746094 "/>
</g>
</svg>

<svg xmlns="http://www.w3.org/2000/svg" width="176pt" height="53.68" viewBox="0 0 176 40.26"><path d="M158.95 13.61v10.636c0 5.277 2.788 8.078 7.98 8.078 5.23 0 9.07-2.972 9.07-5.242 0-1.57-.7-2.484-1.484-2.484-.957 0-1.786.87-2.875.87-1.57 0-2.313-.87-2.313-2.616v-8.024c0-1.09.348-1.047 1.438-1.09l3.402-.129c1.48-.046 1.785-.132 1.785-1.746V9.945c0-1.18-.215-1.222-1.48-1.222h-4.84V6.719c0-2.617-.086-3.403-2.051-3.403-2.094 0-4.883 1.961-9.508 5.188-2.004 1.398-2.613 1.527-2.613 3.184 0 1.964.305 1.832 3.488 1.921m-6.63 7.5c1.7 0 2.442-.876 2.442-3.36 0-5.32-4.407-9.594-10.946-9.594-4.054 0-7.847 1.918-10.203 5.235-1.484 2.09-2.265 4.535-2.265 7.02 0 6.714 5.054 12 12.254 12 2.875 0 5.449-.794 7.671-2.278 1.832-1.219 2.747-2.613 2.747-3.703 0-1.356-.829-2.27-1.829-2.27-1.136 0-2.836 1.918-5.629 1.918-3.093 0-5.449-2.398-5.449-4.36 0-.523.39-.609 1.352-.609Zm-9.16-4.364h-.562c-1.223 0-1.618-.086-1.618-1.219 0-1.746 1.356-3.097 2.836-3.097 1.442 0 2.532 1.09 2.532 2.793 0 1.48-.352 1.523-2.746 1.523Zm-28.035 4.93c0 3.226-1.18 4.926-3.012 4.926-.695 0-1.175-.48-1.175-1.09 0-.828.304-1.657.304-2.442 0-2.793-2.094-4.882-5.101-4.882-2.922 0-5.059 2.18-5.059 5.449 0 5.234 4.664 8.945 12.164 8.945 6.367 0 10.426-2.535 11.992-7.418.961-2.969.57-8.285.832-15.742.086-2.227.086-2.922 1.528-3.75 1.043-.61 1.699-.918 1.699-2.488 0-2.528-2.703-3.184-8.813-3.184-6.058 0-8.894.875-8.894 3.621 0 1.484.785 1.785 1.879 2.27 1.48.609 1.656 1.043 1.656 3.53Zm-35.41 3.05c1.96 4.274 3.27 7.118 3.27 8.817 0 .96-.438 1.484-1.09 1.484-.961 0-.7-1.398-1.438-3.011-.656-1.446-1.922-2.23-3.488-2.23-2.137 0-4.059 1.874-4.059 4.366 0 3.535 2.793 6.11 7.242 6.11 4.27 0 7.325-2.274 9.852-6.805 2.527-4.633 3.664-10.3 5.715-15.84.914-2.394 1.222-3.27 3.008-3.965 1.308-.48 2.136-.828 2.136-2.488 0-1.785-1.57-2.66-4.968-2.66-3.668 0-5.54 1.004-5.54 2.617 0 1.309 1.743 1.79 1.743 2.879 0 .172-.172 1.223-.828 2.617-.567 1.266-1.047 1.918-1.832 1.918-.915 0-1.395-.652-1.918-1.965-.567-1.39-.872-2.308-.872-2.789 0-.785 1.438-.87 1.438-2.484 0-2.313-2.266-2.836-7.063-2.836-5.8 0-8.765 1.309-8.765 3.621 0 1.57 1.004 1.828 2.004 2.355 1.222.61 1.484 1.657 2.093 3.008Zm-8.418-.085c0-3.446-1.961-5.496-6.106-7.59-2.351-1.176-3.836-1.613-3.836-2.746 0-.653.61-1.18 1.31-1.18 1.394 0 2.093 1.223 3.269 2.27.785.699 1.527 1.046 2.398 1.046 1.527 0 2.531-1.003 2.531-2.53 0-2.79-2.574-5.755-4.23-5.755-.7 0-1.528.7-2.399.7-.914 0-2.226-.57-3.836-.57-5.015 0-8.941 3.577-8.941 7.679 0 3.137 1.961 5.84 5.711 7.715 1.922.96 3.316 1.18 3.316 2.617 0 .48-.48.957-1.18.957-.956 0-2.093-.738-3.445-2.18-.957-1-1.656-1.918-3.05-1.918-1.266 0-1.875.918-1.875 2.66 0 3.141 2.66 6.2 4.23 6.2.695 0 1.395-.528 2.047-.528.656 0 2.227.79 4.797.79 5.672 0 9.289-3.278 9.289-7.637m-33.84-1.965c0 3.012-.086 4.23-1.613 4.23-1.133 0-1.742-.87-1.742-2.574 0-1.785.828-2.789 2.222-2.789 1.004 0 1.133.086 1.133 1.133m.043-4.403c-1.437-.261-2.57-.39-3.488-.39-5.45 0-9.59 3.226-9.59 7.367 0 4.012 2.965 6.855 7.715 6.855 2.183 0 3.445-.53 4.972-1.62.438-.31.743-.657 1.133-.657.48 0 .918.742 1.746 1.527.739.707 1.614.922 2.836.922 4.227 0 7.324-2.886 7.324-4.976 0-.742-.437-1.309-1.308-1.528-1.266-.347-1.309-.957-1.309-4.144v-.652c0-1.442.133-3.141.133-5.059 0-5.102-3.664-7.805-10.598-7.805-6.671 0-10.902 2.703-10.902 5.668 0 1.656 1.176 2.836 2.703 2.836 1.438 0 2.574-.742 3.84-2.27 1-1.222 1.656-2.312 2.965-2.312 1.394 0 1.918 1.266 1.918 4.059 0 .652-.043 1.351-.09 2.18M20.973 21.11c1.703 0 2.445-.875 2.445-3.359 0-5.32-4.406-9.594-10.945-9.594-4.055 0-7.852 1.918-10.207 5.235C.786 15.48 0 17.926 0 20.41c0 6.714 5.059 12 12.254 12 2.879 0 5.453-.794 7.676-2.278 1.832-1.219 2.746-2.613 2.746-3.703 0-1.356-.828-2.27-1.832-2.27-1.133 0-2.836 1.918-5.625 1.918-3.098 0-5.45-2.398-5.45-4.36 0-.523.391-.609 1.352-.609Zm-9.157-4.363h-.566c-1.223 0-1.613-.086-1.613-1.219 0-1.746 1.351-3.097 2.836-3.097 1.437 0 2.527 1.09 2.527 2.793 0 1.48-.348 1.523-2.746 1.523z" style="stroke:none;fill-rule:evenodd;fill:#ed5a1e;fill-opacity:1"/></svg>
